src/lib/packages/icons/src/assets/line/folder-star.svg

<svg width="24" height="24" viewBox="0 0 24 24" fill="none" xmlns="http://www.w3.org/2000/svg">
<path d="M18 20.75H6C3.582 20.75 2.25 19.418 2.25 17V7C2.25 4.582 3.582 3.25 6 3.25H10C10.199 3.25 10.39 3.329 10.53 3.47L13.3101 6.25H18C20.418 6.25 21.75 7.582 21.75 10V17C21.75 19.418 20.418 20.75 18 20.75ZM6 4.75C4.423 4.75 3.75 5.423 3.75 7V17C3.75 18.577 4.423 19.25 6 19.25H18C19.577 19.25 20.25 18.577 20.25 17V10C20.25 8.423 19.577 7.75 18 7.75H13C12.801 7.75 12.61 7.671 12.47 7.53L9.68994 4.75H6ZM13.8879 17.214C13.7049 17.214 13.5211 17.171 13.3511 17.083L12 16.388L10.6499 17.082C10.2529 17.287 9.77892 17.25 9.41992 16.984C9.06292 16.722 8.88809 16.288 8.96509 15.853L9.21802 14.405L8.10107 13.339C7.78607 13.038 7.67196 12.593 7.80396 12.179C7.93795 11.762 8.29203 11.464 8.72803 11.401L10.2881 11.179L10.957 9.85101C11.156 9.45601 11.557 9.211 12.001 9.211C12.445 9.211 12.8459 9.45601 13.0449 9.85101L13.7141 11.179L15.2729 11.401C15.7099 11.463 16.064 11.761 16.198 12.179C16.33 12.593 16.2169 13.037 15.9009 13.338L14.7839 14.404L15.0371 15.853C15.1141 16.287 14.939 16.72 14.583 16.982C14.375 17.136 14.1329 17.214 13.8879 17.214ZM12 14.844C12.18 14.844 12.3599 14.886 12.5239 14.971L13.4399 15.442L13.27 14.468C13.206 14.096 13.3301 13.719 13.6021 13.458L14.311 12.781L13.3169 12.639C12.9489 12.587 12.6289 12.359 12.4609 12.029L12 11.115L11.541 12.026C11.37 12.359 11.0511 12.588 10.6831 12.64L9.68896 12.782L10.397 13.458C10.67 13.72 10.794 14.097 10.731 14.467L10.5601 15.442L11.4771 14.971C11.6411 14.886 11.82 14.844 12 14.844ZM13.7991 11.351H13.8091H13.7991ZM11.7041 10.529C11.7051 10.529 11.7051 10.53 11.7051 10.53L11.7041 10.529Z" fill="currentColor"/>
</svg>

<svg xmlns="http://www.w3.org/2000/svg" width="24" height="24" fill="none"><path fill="currentColor" d="M18 20.75H6c-2.418 0-3.75-1.332-3.75-3.75V7c0-2.418 1.332-3.75 3.75-3.75h4c.199 0 .39.079.53.22l2.78 2.78H18c2.418 0 3.75 1.332 3.75 3.75v7c0 2.418-1.332 3.75-3.75 3.75Zm-12-16c-1.577 0-2.25.673-2.25 2.25v10c0 1.577.673 2.25 2.25 2.25h12c1.577 0 2.25-.673 2.25-2.25v-7c0-1.577-.673-2.25-2.25-2.25h-5a.747.747 0 0 1-.53-.22L9.69 4.75H6Zm7.888 12.464c-.183 0-.367-.043-.537-.131L12 16.388l-1.35.694a1.163 1.163 0 0 1-1.23-.098 1.148 1.148 0 0 1-.455-1.131l.253-1.448-1.117-1.066a1.133 1.133 0 0 1 .627-1.938l1.56-.222.669-1.328c.199-.395.6-.64 1.044-.64.444 0 .845.245 1.044.64l.67 1.328 1.558.222a1.13 1.13 0 0 1 .628 1.937l-1.117 1.066.253 1.449c.077.434-.098.867-.454 1.129-.208.154-.45.232-.695.232ZM12 14.844c.18 0 .36.042.524.127l.916.471-.17-.974c-.064-.372.06-.749.332-1.01l.709-.677-.994-.142a1.14 1.14 0 0 1-.856-.61L12 11.115l-.459.911c-.171.333-.49.562-.858.614l-.994.142.708.676c.273.262.397.639.334 1.009l-.17.975.916-.471c.164-.085.343-.127.523-.127Zm1.8-3.493h.01-.01Zm-2.096-.822.001.001v-.001Z"/></svg>
